Origami/48x48/apps/pdfchain.svg

<svg width="48" height="48" version="1" xmlns="http://www.w3.org/2000/svg">
 <rect transform="matrix(0,-1,-1,0,0,0)" x="-33" y="-32" width="28" height="28" rx="4" ry="4" style="opacity:.2"/>
 <rect transform="matrix(0,-1,-1,0,0,0)" x="-32" y="-32" width="28" height="28" rx="4" ry="4" style="fill:#2e72be"/>
 <rect transform="matrix(0,-1,-1,0,0,0)" x="-39" y="-38" width="28" height="28" rx="4" ry="4" style="opacity:.2"/>
 <rect transform="matrix(0,-1,-1,0,0,0)" x="-38" y="-38" width="28" height="28" rx="4" ry="4" style="fill:#459df7"/>
 <rect transform="matrix(0,-1,-1,0,0,0)" x="-45" y="-44" width="28" height="28" rx="4" ry="4" style="opacity:.2"/>
 <rect transform="matrix(0,-1,-1,0,0,0)" x="-44" y="-44" width="28" height="28" rx="4" ry="4" style="fill:#90c2fa"/>
 <path d="m8 4c-2.216 0-4 1.784-4 4v1c0-2.216 1.784-4 4-4h20c2.216 0 4 1.784 4 4v-1c0-2.216-1.784-4-4-4h-20z" style="fill:#ffffff;opacity:.1"/>
 <path d="m14 10c-2.216 0-4 1.784-4 4v1c0-2.216 1.784-4 4-4h20c2.216 0 4 1.784 4 4v-1c0-2.216-1.784-4-4-4h-20z" style="fill:#ffffff;opacity:.1"/>
 <path d="m20 16c-2.216 0-4 1.784-4 4v1c0-2.216 1.784-4 4-4h20c2.216 0 4 1.784 4 4v-1c0-2.216-1.784-4-4-4h-20z" style="fill:#ffffff;opacity:.1"/>
 <path d="M 30.085938,28 A 7.7804839,4.9461164 34.437874 0 0 26.404297,29.894531 7.7804839,4.9461164 34.437874 0 0 30.65625,38.375 7.7804839,4.9461164 34.437874 0 0 39.595703,38.105469 7.7804839,4.9461164 34.437874 0 0 35.34375,29.625 7.7804839,4.9461164 34.437874 0 0 30.085938,28 Z" style="fill:#f34e51"/>
 <path d="m31.427734 31.002771a5.2648198 3.6444029 25.717096 0 1 2.324219 0.375 5.2648198 3.6444029 25.717096 0 1 4.191406 5.316406 5.2648198 3.6444029 25.717096 0 1 -5.695312 1.929688 5.2648198 3.6444029 25.717096 0 1 -4.191406 -5.316406 5.2648198 3.6444029 25.717096 0 1 3.371093 -2.304688z" style="opacity:.2"/>
 <path d="m31.427734 30.001953a5.2648198 3.6444029 25.717096 0 1 2.324219 0.375 5.2648198 3.6444029 25.717096 0 1 4.191406 5.316406 5.2648198 3.6444029 25.717096 0 1 -5.695312 1.929688 5.2648198 3.6444029 25.717096 0 1 -4.191406 -5.316406 5.2648198 3.6444029 25.717096 0 1 3.371093 -2.304688z" style="fill:#ffffff"/>
 <path d="m21 24.990504 9 8" style="fill:none;opacity:.2;stroke-linecap:round;stroke-linejoin:round;stroke-width:2;stroke:#000000"/>
 <path d="m21 24 9 8" style="fill:none;stroke-linecap:round;stroke-linejoin:round;stroke-width:2;stroke:#f34e51"/>
</svg>

<svg xmlns="http://www.w3.org/2000/svg" width="48" height="48" version="1">
 <rect style="opacity:0.2" width="28" height="28" x="-33" y="-32" rx="4" ry="4" transform="matrix(0,-1,-1,0,0,0)"/>
 <rect style="fill:#2e72be" width="28" height="28" x="-32" y="-32" rx="4" ry="4" transform="matrix(0,-1,-1,0,0,0)"/>
 <rect style="opacity:0.2" width="28" height="28" x="-39" y="-38" rx="4" ry="4" transform="matrix(0,-1,-1,0,0,0)"/>
 <rect style="fill:#459df7" width="28" height="28" x="-38" y="-38" rx="4" ry="4" transform="matrix(0,-1,-1,0,0,0)"/>
 <rect style="opacity:0.2" width="28" height="28" x="-45" y="-44" rx="4" ry="4" transform="matrix(0,-1,-1,0,0,0)"/>
 <rect style="fill:#90c2fa" width="28" height="28" x="-44" y="-44" rx="4" ry="4" transform="matrix(0,-1,-1,0,0,0)"/>
 <path style="opacity:0.1;fill:#ffffff" d="M 8 4 C 5.784 4 4 5.784 4 8 L 4 9 C 4 6.784 5.784 5 8 5 L 28 5 C 30.216 5 32 6.784 32 9 L 32 8 C 32 5.784 30.216 4 28 4 L 8 4 z"/>
 <path style="opacity:0.1;fill:#ffffff" d="M 14 10 C 11.784 10 10 11.784 10 14 L 10 15 C 10 12.784 11.784 11 14 11 L 34 11 C 36.216 11 38 12.784 38 15 L 38 14 C 38 11.784 36.216 10 34 10 L 14 10 z"/>
 <path style="opacity:0.1;fill:#ffffff" d="M 20 16 C 17.784 16 16 17.784 16 20 L 16 21 C 16 18.784 17.784 17 20 17 L 40 17 C 42.216 17 44 18.784 44 21 L 44 20 C 44 17.784 42.216 16 40 16 L 20 16 z"/>
 <path style="fill:#f34e51" d="M 30.085938,28 A 7.7804839,4.9461164 34.437874 0 0 26.404297,29.894531 7.7804839,4.9461164 34.437874 0 0 30.65625,38.375 7.7804839,4.9461164 34.437874 0 0 39.595703,38.105469 7.7804839,4.9461164 34.437874 0 0 35.34375,29.625 7.7804839,4.9461164 34.437874 0 0 30.085938,28 Z"/>
 <path style="opacity:0.2" d="m 31.427734,31.002771 a 5.2648198,3.6444029 25.717096 0 1 2.324219,0.375 5.2648198,3.6444029 25.717096 0 1 4.191406,5.316406 5.2648198,3.6444029 25.717096 0 1 -5.695312,1.929688 5.2648198,3.6444029 25.717096 0 1 -4.191406,-5.316406 5.2648198,3.6444029 25.717096 0 1 3.371093,-2.304688 z"/>
 <path style="fill:#ffffff" d="m 31.427734,30.001953 a 5.2648198,3.6444029 25.717096 0 1 2.324219,0.375 5.2648198,3.6444029 25.717096 0 1 4.191406,5.316406 5.2648198,3.6444029 25.717096 0 1 -5.695312,1.929688 5.2648198,3.6444029 25.717096 0 1 -4.191406,-5.316406 5.2648198,3.6444029 25.717096 0 1 3.371093,-2.304688 z"/>
 <path style="opacity:0.2;fill:none;stroke:#000000;stroke-width:2;stroke-linecap:round;stroke-linejoin:round" d="m 21,24.990504 9,8"/>
 <path style="fill:none;stroke:#f34e51;stroke-width:2;stroke-linecap:round;stroke-linejoin:round" d="m 21,24 9,8"/>
</svg>
